src/assets/animalImage/img/squirrel.svg

<?xml version="1.0" encoding="UTF-8" standalone="no"?><!DOCTYPE svg PUBLIC "-//W3C//DTD SVG 1.1//EN" "http://www.w3.org/Graphics/SVG/1.1/DTD/svg11.dtd"><svg width="100%" height="100%" viewBox="0 0 57 79" version="1.1" xmlns="http://www.w3.org/2000/svg" xmlns:xlink="http://www.w3.org/1999/xlink" xml:space="preserve" style="fill-rule:evenodd;clip-rule:evenodd;stroke-linejoin:round;stroke-miterlimit:1.41421;"><path d="M29.716,0.594c-0.992,0.848 -1.922,2.515 -2.699,4.365c-0.798,1.894 -1.526,4.282 -1.526,4.282c0,0 7.925,-0.59 9.249,-1.367c1.433,-0.843 0.914,-2.066 0.149,-3.684c-0.855,-1.809 -2.754,-5.664 -5.173,-3.596" style="fill:#ad7b51;fill-rule:nonzero;"/><path d="M35.012,7.378c0.843,-0.406 1.865,-0.238 1.865,-0.238c0,0 -0.733,-0.682 -1.556,-0.865c-0.9,-0.2 -4.365,0.915 -3.571,0.152c0.376,-0.361 1.892,-0.305 1.892,-0.305c0,0 -0.489,-0.488 -1.282,-0.611c-0.793,-0.122 -3.113,1.282 -3.235,0.855c-0.11,-0.384 1.251,-0.998 1.251,-0.998c0,0 -0.824,-0.436 -2.685,0.205c-1.793,0.617 -6.782,3.444 -6.782,5.65l0.003,0c-5.058,3.612 -8.808,9.085 -8.808,14.193c0,8.621 9.808,13.977 19.431,13.977c4.491,0 10.143,-0.981 14.887,-2.904c4.976,-2.019 8.951,-5.079 9.551,-9.131c0.058,-0.349 0.084,-0.709 0.084,-1.078c0,-7.866 -11.688,-17.307 -21.045,-18.902" style="fill:#d19563;fill-rule:nonzero;"/><path d="M36.186,67.471c3.51,3.01 15.145,2.217 14.424,5.952c-0.265,1.376 -15.324,-0.071 -20.818,-1.005c-1.084,-0.183 -8.231,-17.49 6.394,-4.947" style="fill:#ad7b51;fill-rule:nonzero;"/><path d="M46.111,72.343c2.939,-4.76 0.095,-8.761 -1.884,-13.28c-1.951,-2.551 -2.506,-6.603 -3.039,-8.733c-0.997,-3.987 -4.329,-11.339 -4.907,-13.644c-0.092,-0.364 -0.301,-0.678 -0.611,-0.945c-1.637,-1.413 -6.038,-1.485 -9.983,-0.86c0,0 -11.337,16.503 -10.502,27.691c0.832,11.185 10.303,15.84 18.277,15.755c3.233,-0.034 6.588,-1.313 9.384,-3.212c1.213,-0.823 2.317,-1.765 3.265,-2.772" style="fill:#d19563;fill-rule:nonzero;"/><path d="M46.111,72.343c4.892,-7.925 -1.203,-16 -4.846,-22.917c-0.782,-1.484 -1.289,-3.082 -1.907,-4.64c-0.763,-1.927 -1.967,-4.256 -4.431,-3.658c-4.084,0.99 -4.497,10.229 -4.655,13.003c-0.154,2.684 -2.584,16.956 12.574,20.984c1.213,-0.823 2.317,-1.765 3.265,-2.772" style="fill:#fff;fill-rule:nonzero;"/><path d="M33.489,72.446c3.51,3.01 15.145,2.216 14.424,5.952c-0.266,1.376 -15.324,-0.071 -20.818,-1.005c-1.084,-0.183 -8.23,-17.49 6.394,-4.947" style="fill:#d19563;fill-rule:nonzero;"/><path d="M11.158,12.683c0.027,1.304 0.727,3.08 1.665,4.854c0.96,1.817 2.345,3.894 2.345,3.894c0,0 4.567,-6.504 4.804,-8.02c0.258,-1.643 -1.017,-2.017 -2.754,-2.45c-1.941,-0.485 -6.127,-1.46 -6.06,1.722" style="fill:#d19563;fill-rule:nonzero;"/><path d="M26.158,41.54c0,0 4.122,1.982 7.235,6.657c3.113,4.676 5.335,7.986 9.462,9.806c4.126,1.819 -0.324,6.193 -4.859,3.489c-4.535,-2.703 -11.448,-7.769 -15.437,-11.768c-3.989,-3.999 3.599,-8.184 3.599,-8.184" style="fill:#d19563;fill-rule:nonzero;"/><path d="M33.837,19.597c0,1.013 -0.821,1.835 -1.834,1.835c-1.013,0 -1.834,-0.822 -1.834,-1.835c0,-1.013 0.821,-1.834 1.834,-1.834c1.013,0 1.834,0.821 1.834,1.834" style="fill:#3d3b37;fill-rule:nonzero;"/><path d="M43.661,12.957c0,1.013 -0.821,1.835 -1.834,1.835c-1.013,0 -1.834,-0.822 -1.834,-1.835c0,-1.013 0.821,-1.834 1.834,-1.834c1.013,0 1.834,0.821 1.834,1.834" style="fill:#3d3b37;fill-rule:nonzero;"/><path d="M49.139,29.667c0,1.749 0.604,3.354 1.608,4.608c2.818,-1.83 4.815,-4.14 5.226,-6.917c0.058,-0.349 0.084,-0.709 0.084,-1.078c0,-1.241 -0.292,-2.521 -0.819,-3.804c-3.446,0.5 -6.099,3.525 -6.099,7.191" style="fill:#fff;fill-rule:nonzero;"/><path d="M51.677,23.647c-0.341,-0.788 1.159,-1.805 1.748,-2.092c0.589,-0.286 2.177,-0.712 2.548,-0.004c0.405,0.771 -0.769,2.756 -1.21,2.971c-0.442,0.215 -2.741,-0.076 -3.086,-0.875" style="fill:#3d3b37;fill-rule:nonzero;"/><path d="M21.4,70.62l-0.464,-5.527c0,0 -2.59,3.886 -6.649,2.795c-4.059,-1.09 -3.627,-6.94 0.853,-18.079c1.311,-3.259 2.336,-9.098 -0.48,-12.021c-4.101,-4.259 -12.01,0.082 -13.108,5.11c0,0 1.767,-2.024 3.58,-1.357c0,0 -2.489,0.925 -3.361,2.911c0,0 2.412,-0.406 2.843,1.826c0.432,2.233 -8.981,19.94 -2.072,27.711c6.909,7.771 18.858,-3.369 18.858,-3.369" style="fill:#d19563;fill-rule:nonzero;"/><path d="M14.536,24.919c0,0 0.157,0.081 0.279,0.312c0.123,0.225 0.187,0.557 0.226,0.849c0.02,0.144 0.053,0.273 0.091,0.401c0.04,0.123 0.081,0.238 0.142,0.322c0.108,0.179 0.264,0.257 0.264,0.257c0.008,-0.006 -0.183,0.055 -0.413,-0.106c-0.104,-0.081 -0.221,-0.195 -0.295,-0.34c-0.081,-0.141 -0.13,-0.315 -0.159,-0.478c-0.048,-0.325 -0.029,-0.62 -0.057,-0.84c-0.019,-0.219 -0.078,-0.377 -0.078,-0.377" style="fill:#fff;fill-rule:nonzero;"/><path d="M17.034,29.31c0,0 0.121,0.04 0.269,0.131c0.147,0.091 0.33,0.226 0.483,0.391c0.155,0.161 0.281,0.35 0.363,0.503c0.083,0.153 0.116,0.276 0.116,0.276c0,0 -0.121,-0.04 -0.269,-0.131c-0.148,-0.091 -0.33,-0.227 -0.483,-0.391c-0.155,-0.161 -0.279,-0.351 -0.363,-0.504c-0.082,-0.153 -0.116,-0.275 -0.116,-0.275" style="fill:#fff;fill-rule:nonzero;"/><path d="M15.917,31.374c0,0 0.143,0.076 0.327,0.207c0.185,0.133 0.423,0.311 0.642,0.507c0.222,0.193 0.428,0.405 0.583,0.571c0.154,0.168 0.247,0.3 0.247,0.3c0,0 -0.159,-0.031 -0.371,-0.129c-0.211,-0.097 -0.478,-0.256 -0.708,-0.461c-0.231,-0.202 -0.423,-0.447 -0.546,-0.644c-0.123,-0.198 -0.174,-0.351 -0.174,-0.351" style="fill:#fff;fill-rule:nonzero;"/><path d="M19.331,29.311c0,0 0.04,-0.014 0.117,-0.011c0.075,0.007 0.193,0.023 0.308,0.093c0.112,0.069 0.238,0.161 0.344,0.271c0.111,0.109 0.206,0.224 0.314,0.321c0.21,0.198 0.449,0.377 0.649,0.496c0.197,0.121 0.349,0.202 0.349,0.202c0,0 -0.169,0.04 -0.422,-0.004c-0.252,-0.041 -0.582,-0.178 -0.835,-0.424c-0.124,-0.122 -0.228,-0.259 -0.308,-0.38c-0.084,-0.12 -0.149,-0.236 -0.223,-0.318c-0.134,-0.173 -0.293,-0.246 -0.293,-0.246" style="fill:#fff;fill-rule:nonzero;"/><path d="M18.244,25.946c0,0 0.122,0.035 0.274,0.12c0.151,0.085 0.339,0.213 0.498,0.371c0.162,0.154 0.295,0.339 0.383,0.488c0.089,0.149 0.127,0.271 0.127,0.271c0,0 -0.122,-0.035 -0.274,-0.12c-0.151,-0.085 -0.339,-0.213 -0.498,-0.371c-0.162,-0.155 -0.294,-0.34 -0.383,-0.489c-0.089,-0.15 -0.127,-0.27 -0.127,-0.27" style="fill:#fff;fill-rule:nonzero;"/><path d="M21.4,36.125c0.007,-0.013 0.336,-0.176 0.636,-0.233c0.297,-0.07 0.666,-0.055 0.678,-0.045c0,0 -0.047,0.094 -0.153,0.187c-0.104,0.094 -0.267,0.189 -0.447,0.225c-0.179,0.04 -0.366,0.017 -0.5,-0.025c-0.136,-0.042 -0.214,-0.109 -0.214,-0.109" style="fill:#fff;fill-rule:nonzero;"/><path d="M13.6,48.403c-0.006,0.001 0.058,0.027 0.08,0.135c0.018,0.102 -0.013,0.261 -0.086,0.402c-0.126,0.291 -0.311,0.668 -0.532,1.023c-0.217,0.357 -0.469,0.693 -0.672,0.936c-0.202,0.243 -0.363,0.39 -0.363,0.39c0,0 0.058,-0.21 0.183,-0.501c0.126,-0.29 0.312,-0.666 0.533,-1.022c0.217,-0.357 0.47,-0.692 0.672,-0.936c0.098,-0.119 0.177,-0.209 0.192,-0.292c0.022,-0.081 -0.007,-0.135 -0.007,-0.135" style="fill:#fff;fill-rule:nonzero;"/><path d="M9.924,55.406c0,0 0.034,0.158 0.041,0.386c0.006,0.228 -0.004,0.529 -0.057,0.823c-0.048,0.295 -0.136,0.583 -0.218,0.796c-0.082,0.214 -0.167,0.35 -0.167,0.35c0,0 -0.035,-0.156 -0.041,-0.385c-0.007,-0.228 0.005,-0.53 0.057,-0.824c0.048,-0.294 0.138,-0.582 0.219,-0.795c0.082,-0.213 0.166,-0.351 0.166,-0.351" style="fill:#fff;fill-rule:nonzero;"/><path d="M12.433,54.491c0,0 0.008,0.123 -0.021,0.288c-0.029,0.165 -0.086,0.376 -0.18,0.569c-0.091,0.195 -0.219,0.373 -0.329,0.499c-0.11,0.126 -0.211,0.197 -0.211,0.197c0,0 -0.008,-0.123 0.021,-0.288c0.029,-0.165 0.086,-0.376 0.18,-0.569c0.091,-0.195 0.22,-0.372 0.33,-0.499c0.11,-0.126 0.21,-0.197 0.21,-0.197" style="fill:#fff;fill-rule:nonzero;"/><path d="M10.465,52.139c0,0 0.039,0.113 0.045,0.278c0.006,0.165 -0.014,0.382 -0.085,0.584c-0.067,0.204 -0.183,0.389 -0.289,0.515c-0.105,0.127 -0.206,0.193 -0.206,0.193c0,0 -0.008,-0.12 0.013,-0.278c0.022,-0.159 0.06,-0.361 0.127,-0.551c0.063,-0.191 0.157,-0.374 0.236,-0.513c0.08,-0.138 0.159,-0.228 0.159,-0.228" style="fill:#fff;fill-rule:nonzero;"/><path d="M9.579,61.603c0,0 0.095,0.157 0.195,0.402c0.098,0.245 0.212,0.575 0.283,0.915c0.076,0.338 0.111,0.686 0.122,0.95c0.011,0.264 -0.01,0.446 -0.01,0.446c0,0 -0.096,-0.157 -0.196,-0.401c-0.099,-0.246 -0.211,-0.576 -0.282,-0.915c-0.076,-0.339 -0.11,-0.687 -0.122,-0.951c-0.012,-0.264 0.01,-0.446 0.01,-0.446" style="fill:#fff;fill-rule:nonzero;"/><path d="M11.032,67.289c0,0 0.108,0.039 0.236,0.109c0.128,0.074 0.287,0.171 0.427,0.29c0.142,0.114 0.27,0.251 0.366,0.363c0.094,0.112 0.151,0.211 0.151,0.211c0,0 -0.113,0.008 -0.263,-0.032c-0.149,-0.039 -0.338,-0.123 -0.492,-0.254c-0.158,-0.126 -0.275,-0.296 -0.343,-0.435c-0.068,-0.14 -0.082,-0.252 -0.082,-0.252" style="fill:#fff;fill-rule:nonzero;"/><path d="M13.996,69.851c0,-0.014 0.258,-0.2 0.515,-0.188c0.258,-0.013 0.516,0.174 0.516,0.188c0,0.015 -0.258,0.201 -0.516,0.187c-0.257,0.013 -0.515,-0.173 -0.515,-0.187" style="fill:#fff;fill-rule:nonzero;"/><path d="M8.407,65.847c0,0 0.123,0.124 0.274,0.317c0.151,0.196 0.344,0.455 0.513,0.727c0.174,0.269 0.327,0.553 0.44,0.773c0.111,0.22 0.169,0.384 0.169,0.384c0,0 -0.151,-0.086 -0.337,-0.256c-0.187,-0.169 -0.411,-0.418 -0.588,-0.7c-0.18,-0.281 -0.309,-0.591 -0.383,-0.831c-0.074,-0.242 -0.088,-0.414 -0.088,-0.414" style="fill:#fff;fill-rule:nonzero;"/><path d="M14.559,73.233c-0.002,-0.015 0.31,-0.228 0.64,-0.243c0.326,-0.042 0.669,0.116 0.671,0.13c0.001,0.015 -0.311,0.229 -0.64,0.243c-0.326,0.041 -0.67,-0.116 -0.671,-0.13" style="fill:#fff;fill-rule:nonzero;"/><path d="M9.49,71.079c0,0 0.144,0.007 0.338,0.052c0.194,0.046 0.442,0.116 0.676,0.197c0.235,0.076 0.463,0.161 0.648,0.211c0.183,0.053 0.322,0.092 0.322,0.092c0,0 -0.121,0.082 -0.33,0.119c-0.209,0.04 -0.498,0.024 -0.759,-0.067c-0.263,-0.086 -0.491,-0.237 -0.649,-0.363c-0.158,-0.128 -0.246,-0.241 -0.246,-0.241" style="fill:#fff;fill-rule:nonzero;"/></svg>

<?xml version="1.0" encoding="UTF-8" standalone="no"?>
<!DOCTYPE svg PUBLIC "-//W3C//DTD SVG 1.1//EN" "http://www.w3.org/Graphics/SVG/1.1/DTD/svg11.dtd">
<svg width="100%" height="100%" viewBox="0 0 79 79" version="1.1" xmlns="http://www.w3.org/2000/svg" xmlns:xlink="http://www.w3.org/1999/xlink" xml:space="preserve" xmlns:serif="http://www.serif.com/" style="fill-rule:evenodd;clip-rule:evenodd;stroke-linejoin:round;stroke-miterlimit:1.41421;">
    <g transform="matrix(1,0,0,1,11,0)">
        <path d="M29.716,0.594C28.724,1.442 27.794,3.109 27.017,4.959C26.219,6.853 25.491,9.241 25.491,9.241C25.491,9.241 33.416,8.651 34.74,7.874C36.173,7.031 35.654,5.808 34.889,4.19C34.034,2.381 32.135,-1.474 29.716,0.594" style="fill:rgb(173,123,81);fill-rule:nonzero;"/>
    </g>
    <g transform="matrix(1,0,0,1,11,0)">
        <path d="M35.012,7.378C35.855,6.972 36.877,7.14 36.877,7.14C36.877,7.14 36.144,6.458 35.321,6.275C34.421,6.075 30.956,7.19 31.75,6.427C32.126,6.066 33.642,6.122 33.642,6.122C33.642,6.122 33.153,5.634 32.36,5.511C31.567,5.389 29.247,6.793 29.125,6.366C29.015,5.982 30.376,5.368 30.376,5.368C30.376,5.368 29.552,4.932 27.691,5.573C25.898,6.19 20.909,9.017 20.909,11.223L20.912,11.223C15.854,14.835 12.104,20.308 12.104,25.416C12.104,34.037 21.912,39.393 31.535,39.393C36.026,39.393 41.678,38.412 46.422,36.489C51.398,34.47 55.373,31.41 55.973,27.358C56.031,27.009 56.057,26.649 56.057,26.28C56.057,18.414 44.369,8.973 35.012,7.378" style="fill:rgb(209,149,99);fill-rule:nonzero;"/>
    </g>
    <g transform="matrix(1,0,0,1,11,0)">
        <path d="M36.186,67.471C39.696,70.481 51.331,69.688 50.61,73.423C50.345,74.799 35.286,73.352 29.792,72.418C28.708,72.235 21.561,54.928 36.186,67.471" style="fill:rgb(173,123,81);fill-rule:nonzero;"/>
    </g>
    <g transform="matrix(1,0,0,1,11,0)">
        <path d="M46.111,72.343C49.05,67.583 46.206,63.582 44.227,59.063C42.276,56.512 41.721,52.46 41.188,50.33C40.191,46.343 36.859,38.991 36.281,36.686C36.189,36.322 35.98,36.008 35.67,35.741C34.033,34.328 29.632,34.256 25.687,34.881C25.687,34.881 14.35,51.384 15.185,62.572C16.017,73.757 25.488,78.412 33.462,78.327C36.695,78.293 40.05,77.014 42.846,75.115C44.059,74.292 45.163,73.35 46.111,72.343" style="fill:rgb(209,149,99);fill-rule:nonzero;"/>
    </g>
    <g transform="matrix(1,0,0,1,11,0)">
        <path d="M46.111,72.343C51.003,64.418 44.908,56.343 41.265,49.426C40.483,47.942 39.976,46.344 39.358,44.786C38.595,42.859 37.391,40.53 34.927,41.128C30.843,42.118 30.43,51.357 30.272,54.131C30.118,56.815 27.688,71.087 42.846,75.115C44.059,74.292 45.163,73.35 46.111,72.343" style="fill:white;fill-rule:nonzero;"/>
    </g>
    <g transform="matrix(1,0,0,1,11,0)">
        <path d="M33.489,72.446C36.999,75.456 48.634,74.662 47.913,78.398C47.647,79.774 32.589,78.327 27.095,77.393C26.011,77.21 18.865,59.903 33.489,72.446" style="fill:rgb(209,149,99);fill-rule:nonzero;"/>
    </g>
    <g transform="matrix(1,0,0,1,11,0)">
        <path d="M11.158,12.683C11.185,13.987 11.885,15.763 12.823,17.537C13.783,19.354 15.168,21.431 15.168,21.431C15.168,21.431 19.735,14.927 19.972,13.411C20.23,11.768 18.955,11.394 17.218,10.961C15.277,10.476 11.091,9.501 11.158,12.683" style="fill:rgb(209,149,99);fill-rule:nonzero;"/>
    </g>
    <g transform="matrix(1,0,0,1,11,0)">
        <path d="M26.158,41.54C26.158,41.54 30.28,43.522 33.393,48.197C36.506,52.873 38.728,56.183 42.855,58.003C46.981,59.822 42.531,64.196 37.996,61.492C33.461,58.789 26.548,53.723 22.559,49.724C18.57,45.725 26.158,41.54 26.158,41.54" style="fill:rgb(209,149,99);fill-rule:nonzero;"/>
    </g>
    <g transform="matrix(1,0,0,1,11,0)">
        <path d="M33.837,19.597C33.837,20.61 33.016,21.432 32.003,21.432C30.99,21.432 30.169,20.61 30.169,19.597C30.169,18.584 30.99,17.763 32.003,17.763C33.016,17.763 33.837,18.584 33.837,19.597" style="fill:rgb(61,59,55);fill-rule:nonzero;"/>
    </g>
    <g transform="matrix(1,0,0,1,11,0)">
        <path d="M43.661,12.957C43.661,13.97 42.84,14.792 41.827,14.792C40.814,14.792 39.993,13.97 39.993,12.957C39.993,11.944 40.814,11.123 41.827,11.123C42.84,11.123 43.661,11.944 43.661,12.957" style="fill:rgb(61,59,55);fill-rule:nonzero;"/>
    </g>
    <g transform="matrix(1,0,0,1,11,0)">
        <path d="M49.139,29.667C49.139,31.416 49.743,33.021 50.747,34.275C53.565,32.445 55.562,30.135 55.973,27.358C56.031,27.009 56.057,26.649 56.057,26.28C56.057,25.039 55.765,23.759 55.238,22.476C51.792,22.976 49.139,26.001 49.139,29.667" style="fill:white;fill-rule:nonzero;"/>
    </g>
    <g transform="matrix(1,0,0,1,11,0)">
        <path d="M51.677,23.647C51.336,22.859 52.836,21.842 53.425,21.555C54.014,21.269 55.602,20.843 55.973,21.551C56.378,22.322 55.204,24.307 54.763,24.522C54.321,24.737 52.022,24.446 51.677,23.647" style="fill:rgb(61,59,55);fill-rule:nonzero;"/>
    </g>
    <g transform="matrix(1,0,0,1,11,0)">
        <path d="M21.4,70.62L20.936,65.093C20.936,65.093 18.346,68.979 14.287,67.888C10.228,66.798 10.66,60.948 15.14,49.809C16.451,46.55 17.476,40.711 14.66,37.788C10.559,33.529 2.65,37.87 1.552,42.898C1.552,42.898 3.319,40.874 5.132,41.541C5.132,41.541 2.643,42.466 1.771,44.452C1.771,44.452 4.183,44.046 4.614,46.278C5.046,48.511 -4.367,66.218 2.542,73.989C9.451,81.76 21.4,70.62 21.4,70.62" style="fill:rgb(209,149,99);fill-rule:nonzero;"/>
    </g>
    <g transform="matrix(1,0,0,1,11,0)">
        <path d="M14.536,24.919C14.536,24.919 14.693,25 14.815,25.231C14.938,25.456 15.002,25.788 15.041,26.08C15.061,26.224 15.094,26.353 15.132,26.481C15.172,26.604 15.213,26.719 15.274,26.803C15.382,26.982 15.538,27.06 15.538,27.06C15.546,27.054 15.355,27.115 15.125,26.954C15.021,26.873 14.904,26.759 14.83,26.614C14.749,26.473 14.7,26.299 14.671,26.136C14.623,25.811 14.642,25.516 14.614,25.296C14.595,25.077 14.536,24.919 14.536,24.919" style="fill:white;fill-rule:nonzero;"/>
    </g>
    <g transform="matrix(1,0,0,1,11,0)">
        <path d="M17.034,29.31C17.034,29.31 17.155,29.35 17.303,29.441C17.45,29.532 17.633,29.667 17.786,29.832C17.941,29.993 18.067,30.182 18.149,30.335C18.232,30.488 18.265,30.611 18.265,30.611C18.265,30.611 18.144,30.571 17.996,30.48C17.848,30.389 17.666,30.253 17.513,30.089C17.358,29.928 17.234,29.738 17.15,29.585C17.068,29.432 17.034,29.31 17.034,29.31" style="fill:white;fill-rule:nonzero;"/>
    </g>
    <g transform="matrix(1,0,0,1,11,0)">
        <path d="M15.917,31.374C15.917,31.374 16.06,31.45 16.244,31.581C16.429,31.714 16.667,31.892 16.886,32.088C17.108,32.281 17.314,32.493 17.469,32.659C17.623,32.827 17.716,32.959 17.716,32.959C17.716,32.959 17.557,32.928 17.345,32.83C17.134,32.733 16.867,32.574 16.637,32.369C16.406,32.167 16.214,31.922 16.091,31.725C15.968,31.527 15.917,31.374 15.917,31.374" style="fill:white;fill-rule:nonzero;"/>
    </g>
    <g transform="matrix(1,0,0,1,11,0)">
        <path d="M19.331,29.311C19.331,29.311 19.371,29.297 19.448,29.3C19.523,29.307 19.641,29.323 19.756,29.393C19.868,29.462 19.994,29.554 20.1,29.664C20.211,29.773 20.306,29.888 20.414,29.985C20.624,30.183 20.863,30.362 21.063,30.481C21.26,30.602 21.412,30.683 21.412,30.683C21.412,30.683 21.243,30.723 20.99,30.679C20.738,30.638 20.408,30.501 20.155,30.255C20.031,30.133 19.927,29.996 19.847,29.875C19.763,29.755 19.698,29.639 19.624,29.557C19.49,29.384 19.331,29.311 19.331,29.311" style="fill:white;fill-rule:nonzero;"/>
    </g>
    <g transform="matrix(1,0,0,1,11,0)">
        <path d="M18.244,25.946C18.244,25.946 18.366,25.981 18.518,26.066C18.669,26.151 18.857,26.279 19.016,26.437C19.178,26.591 19.311,26.776 19.399,26.925C19.488,27.074 19.526,27.196 19.526,27.196C19.526,27.196 19.404,27.161 19.252,27.076C19.101,26.991 18.913,26.863 18.754,26.705C18.592,26.55 18.46,26.365 18.371,26.216C18.282,26.066 18.244,25.946 18.244,25.946" style="fill:white;fill-rule:nonzero;"/>
    </g>
    <g transform="matrix(1,0,0,1,11,0)">
        <path d="M21.4,36.125C21.407,36.112 21.736,35.949 22.036,35.892C22.333,35.822 22.702,35.837 22.714,35.847C22.714,35.847 22.667,35.941 22.561,36.034C22.457,36.128 22.294,36.223 22.114,36.259C21.935,36.299 21.748,36.276 21.614,36.234C21.478,36.192 21.4,36.125 21.4,36.125" style="fill:white;fill-rule:nonzero;"/>
    </g>
    <g transform="matrix(1,0,0,1,11,0)">
        <path d="M13.6,48.403C13.594,48.404 13.658,48.43 13.68,48.538C13.698,48.64 13.667,48.799 13.594,48.94C13.468,49.231 13.283,49.608 13.062,49.963C12.845,50.32 12.593,50.656 12.39,50.899C12.188,51.142 12.027,51.289 12.027,51.289C12.027,51.289 12.085,51.079 12.21,50.788C12.336,50.498 12.522,50.122 12.743,49.766C12.96,49.409 13.213,49.074 13.415,48.83C13.513,48.711 13.592,48.621 13.607,48.538C13.629,48.457 13.6,48.403 13.6,48.403" style="fill:white;fill-rule:nonzero;"/>
    </g>
    <g transform="matrix(1,0,0,1,11,0)">
        <path d="M9.924,55.406C9.924,55.406 9.958,55.564 9.965,55.792C9.971,56.02 9.961,56.321 9.908,56.615C9.86,56.91 9.772,57.198 9.69,57.411C9.608,57.625 9.523,57.761 9.523,57.761C9.523,57.761 9.488,57.605 9.482,57.376C9.475,57.148 9.487,56.846 9.539,56.552C9.587,56.258 9.677,55.97 9.758,55.757C9.84,55.544 9.924,55.406 9.924,55.406" style="fill:white;fill-rule:nonzero;"/>
    </g>
    <g transform="matrix(1,0,0,1,11,0)">
        <path d="M12.433,54.491C12.433,54.491 12.441,54.614 12.412,54.779C12.383,54.944 12.326,55.155 12.232,55.348C12.141,55.543 12.013,55.721 11.903,55.847C11.793,55.973 11.692,56.044 11.692,56.044C11.692,56.044 11.684,55.921 11.713,55.756C11.742,55.591 11.799,55.38 11.893,55.187C11.984,54.992 12.113,54.815 12.223,54.688C12.333,54.562 12.433,54.491 12.433,54.491" style="fill:white;fill-rule:nonzero;"/>
    </g>
    <g transform="matrix(1,0,0,1,11,0)">
        <path d="M10.465,52.139C10.465,52.139 10.504,52.252 10.51,52.417C10.516,52.582 10.496,52.799 10.425,53.001C10.358,53.205 10.242,53.39 10.136,53.516C10.031,53.643 9.93,53.709 9.93,53.709C9.93,53.709 9.922,53.589 9.943,53.431C9.965,53.272 10.003,53.07 10.07,52.88C10.133,52.689 10.227,52.506 10.306,52.367C10.386,52.229 10.465,52.139 10.465,52.139" style="fill:white;fill-rule:nonzero;"/>
    </g>
    <g transform="matrix(1,0,0,1,11,0)">
        <path d="M9.579,61.603C9.579,61.603 9.674,61.76 9.774,62.005C9.872,62.25 9.986,62.58 10.057,62.92C10.133,63.258 10.168,63.606 10.179,63.87C10.19,64.134 10.169,64.316 10.169,64.316C10.169,64.316 10.073,64.159 9.973,63.915C9.874,63.669 9.762,63.339 9.691,63C9.615,62.661 9.581,62.313 9.569,62.049C9.557,61.785 9.579,61.603 9.579,61.603" style="fill:white;fill-rule:nonzero;"/>
    </g>
    <g transform="matrix(1,0,0,1,11,0)">
        <path d="M11.032,67.289C11.032,67.289 11.14,67.328 11.268,67.398C11.396,67.472 11.555,67.569 11.695,67.688C11.837,67.802 11.965,67.939 12.061,68.051C12.155,68.163 12.212,68.262 12.212,68.262C12.212,68.262 12.099,68.27 11.949,68.23C11.8,68.191 11.611,68.107 11.457,67.976C11.299,67.85 11.182,67.68 11.114,67.541C11.046,67.401 11.032,67.289 11.032,67.289" style="fill:white;fill-rule:nonzero;"/>
    </g>
    <g transform="matrix(1,0,0,1,11,0)">
        <path d="M13.996,69.851C13.996,69.837 14.254,69.651 14.511,69.663C14.769,69.65 15.027,69.837 15.027,69.851C15.027,69.866 14.769,70.052 14.511,70.038C14.254,70.051 13.996,69.865 13.996,69.851" style="fill:white;fill-rule:nonzero;"/>
    </g>
    <g transform="matrix(1,0,0,1,11,0)">
        <path d="M8.407,65.847C8.407,65.847 8.53,65.971 8.681,66.164C8.832,66.36 9.025,66.619 9.194,66.891C9.368,67.16 9.521,67.444 9.634,67.664C9.745,67.884 9.803,68.048 9.803,68.048C9.803,68.048 9.652,67.962 9.466,67.792C9.279,67.623 9.055,67.374 8.878,67.092C8.698,66.811 8.569,66.501 8.495,66.261C8.421,66.019 8.407,65.847 8.407,65.847" style="fill:white;fill-rule:nonzero;"/>
    </g>
    <g transform="matrix(1,0,0,1,11,0)">
        <path d="M14.559,73.233C14.557,73.218 14.869,73.005 15.199,72.99C15.525,72.948 15.868,73.106 15.87,73.12C15.871,73.135 15.559,73.349 15.23,73.363C14.904,73.404 14.56,73.247 14.559,73.233" style="fill:white;fill-rule:nonzero;"/>
    </g>
    <g transform="matrix(1,0,0,1,11,0)">
        <path d="M9.49,71.079C9.49,71.079 9.634,71.086 9.828,71.131C10.022,71.177 10.27,71.247 10.504,71.328C10.739,71.404 10.967,71.489 11.152,71.539C11.335,71.592 11.474,71.631 11.474,71.631C11.474,71.631 11.353,71.713 11.144,71.75C10.935,71.79 10.646,71.774 10.385,71.683C10.122,71.597 9.894,71.446 9.736,71.32C9.578,71.192 9.49,71.079 9.49,71.079" style="fill:white;fill-rule:nonzero;"/>
    </g>
</svg>
